X:968
T:Reel 968
M:4/4
K:Dmaj
L:1/8
AG|FEDd  (3Bcd AF|GBAF EDEG|FDDF A2GF|GEAF D2DG|FEDd  (3Bcd AF|GBAF E2EG|FDDF ABce|fgec d2|A2|FAAF BAAF|GBAF E2AG|FGAF GFed|ceAc d2AG|FAAB ABAF|GBAF E2EG|FABc dcec|dBAF D2|
